X: 20822
M: C
L: 1/8
K: C
c2c2 d>BG>B | c2c2 d>BG>B | c2c2 d>cB>c | d2g2 g2z2 |\
c2c2 d>BG>B | c2c2 d>BG>B | c2c2 d>cd>B | c2e2 c2 :|
d2d2 d>BG>B | d2d2 d2d>e | f2f2 f>dB>d | f2f2 f2f>g |\
a2a>g f2f>e | d2d>c B2B>A | G>A>G^F G>AG>F | G2g2 "^D.C."g2 |]


